; generated by PrusaSlicer 2.5.0+win64 on 2023-03-20 at 10:02:31 UTC


;
;
; 

; external perimeters extrusion width = 0.45mm
; perimeters extrusion width = 0.45mm
; infill extrusion width = 0.45mm
; solid infill extrusion width = 0.45mm
; top infill extrusion width = 0.40mm
; first layer extrusion width = 0.42mm

M73 P0 R299
M73 Q0 S303
M201 X1000 Y1000 Z200 E5000 ; sets maximum accelerations, mm/sec^2
M203 X200 Y200 Z12 E120 ; sets maximum feedrates, mm / sec
M204 P1250 R1250 T1250 ; sets acceleration (P, T) and retract acceleration (R), mm/sec^2
M205 X8.00 Y8.00 Z0.40 E4.50 ; sets the jerk limits, mm/sec
M205 S0 T0 ; sets the minimum extruding and travel feed rate, mm/sec
M107
;TYPE:Custom
M862.3 P "MK3S" ; printer model check
M862.1 P0.4 ; nozzle diameter check
M115 U3.12.2 ; tell printer latest fw version
G90 ; use absolute coordinates
M83 ; extruder relative mode
M104 S215 ; set extruder temp
M140 S60 ; set bed temp
M190 S60 ; wait for bed temp
M109 S215 ; wait for extruder temp
G28 W ; home all without mesh bed level
G80 ; mesh bed leveling

G1 Z0.2 F720
G1 Y-3 F1000 ; go outside print area
G92 E0
G1 X60 E9 F1000 ; intro line
G1 X100 E12.5 F1000 ; intro line

G92 E0
M221 S95

; Don't change E values below. Excessive value can damage the printer.

M907 E538 ; set extruder motor current
G21 ; set units to millimeters
G90 ; use absolute coordinates
M83 ; use relative distances for extrusion
M900 K0.05 ; Filament gcode LA 1.5
M900 K30 ; Filament gcode LA 1.0
M107
;LAYER_CHANGE
;Z:0.2
;HEIGHT:0.2
;BEFORE_LAYER_CHANGE
G92 E0.0
;0.2


G1 E-.8 F2100
G1 Z.4 F720
;AFTER_LAYER_CHANGE
;0.2
G1 X47.015 Y17.91 F10800
G1 Z.2 F720
G1 E.8 F2100
M204 S800
;TYPE:Skirt/Brim
;WIDTH:0.42
G1 F1200
G1 X48.06 Y17.034 E.04278
G1 X49 Y16.84 E.03008
G1 X201 Y16.84 E4.76585
G1 X202.307 Y17.232 E.04278
G1 X203.183 Y18.277 E.04278
G1 X203.377 Y19.217 E.03008
G1 X203.377 Y121.217 E3.19814
G1 X189.747 Y191.239 E2.23669
G1 X189.112 Y192.446 E.04278
G1 X187.414 Y193.16 E.05776
G1 X61.414 Y193.16 E3.95064
G1 X60.107 Y192.768 E.04278
M73 P0 R298
G1 X59.074 Y191.201 E.05887
G1 X46.623 Y121.217 E2.22874
G1 X46.623 Y19.217 E3.19814
G1 X46.997 Y17.967 E.0409
M204 S1000
; printing object 3D_Print_Box v5.stl id:0 copy 0
;WIPE_START
G1 F8640
G1 X48.06 Y17.034 E-.32671
G1 X49 Y16.84 E-.22155
G1 X49.917 Y16.84 E-.21174
;WIPE_END
G1 E-.04 F2100
G1 Z.6 F720
G1 X145.496 Y138.013 F10800
G1 Z.2 F720
G1 E.8 F2100
M204 S800
;TYPE:Perimeter
;WIDTH:0.419999
G1 F1200
G1 X145.485 Y137.928 E.00268
G1 X145.357 Y137.688 E.00853
G1 X145.176 Y137.555 E.00703
G1 X144.937 Y137.502 E.00769
G1 X136.274 Y137.502 E.27162
G1 X136.274 Y131.57 E.18599
G1 X186.627 Y131.57 E1.57877
G1 X186.627 Y189.996 E1.8319
G1 X62.201 Y189.996 E3.90128
G1 X62.201 Y131.57 E1.8319
G1 X110.814 Y131.57 E1.52422
M73 Q0 S302
G1 X110.814 Y186.343 E1.71735
G1 X110.827 Y186.467 E.00392
G1 X110.989 Y186.752 E.01029
G1 X111.162 Y186.865 E.00646
G1 X111.379 Y186.908 E.00696
G1 X125.951 Y186.908 E.45689
G1 X126.049 Y186.9 E.00308
G1 X126.341 Y186.752 E.01027
G1 X126.45 Y186.609 E.00565
G1 X126.517 Y186.343 E.0086
G1 X126.517 Y147.612 E1.21436
G1 X144.937 Y147.612 E.57755
G1 X145.031 Y147.604 E.00297
G1 X145.281 Y147.496 E.00853
G1 X145.457 Y147.269 E.00899
G1 X145.502 Y147.047 E.00713
G1 X145.502 Y138.073 E.28137
M204 S1000
G1 X145.125 Y138.068 F10800
M204 S800
;TYPE:External perimeter
G1 F1200
G1 X145.077 Y137.941 E.00424
G1 X144.937 Y137.879 E.0048
G1 X135.897 Y137.879 E.28345
G1 X135.897 Y131.193 E.20963
G1 X187.004 Y131.193 E1.60242
G1 X187.004 Y190.373 E1.85554
G1 X61.824 Y190.373 E3.92492
G1 X61.824 Y131.193 E1.85554
G1 X111.191 Y131.193 E1.54787
G1 X111.191 Y186.343 E1.72918
G1 X111.249 Y186.479 E.00466
G1 X111.379 Y186.531 E.00439
G1 X125.951 Y186.531 E.45689
G1 X126.081 Y186.479 E.00439
G1 X126.14 Y186.343 E.00466
G1 X126.14 Y147.235 E1.22618
G1 X144.988 Y147.228 E.59098
M73 P0 R297
G1 X145.11 Y147.121 E.00509
G1 X145.125 Y147.047 E.00238
G1 X145.125 Y138.128 E.27965
M204 S1000
G1 X145.223 Y137.973 F10800
;WIPE_START
G1 F8640
G1 X145.077 Y137.941 E-.04447
G1 X144.937 Y137.879 E-.03536
G1 X141.991 Y137.879 E-.68017
;WIPE_END
G1 E-.04 F2100
G1 Z.6 F720
G1 X185.751 Y131.683 F10800
G1 Z.2 F720
G1 E.8 F2100
M204 S800
;TYPE:Solid infill
;WIDTH:0.420198
G1 F1200
G1 X186.344 Y132.276 E.02631
G1 X186.344 Y132.81 E.01674
G1 X185.387 Y131.853 E.04245
G1 X184.853 Y131.853 E.01674
G1 X186.344 Y133.343 E.06612
G1 X186.344 Y133.877 E.01674
G1 X184.32 Y131.853 E.08979
G1 X183.786 Y131.853 E.01674
G1 X186.344 Y134.41 E.11346
G1 X186.344 Y134.944 E.01674
G1 X183.253 Y131.853 E.13714
G1 X182.719 Y131.853 E.01674
G1 X186.344 Y135.477 E.16081
G1 X186.344 Y136.011 E.01674
G1 X182.186 Y131.853 E.18448
G1 X181.652 Y131.853 E.01674
G1 X186.344 Y136.545 E.20815
G1 X186.344 Y137.078 E.01674
G1 X181.119 Y131.853 E.23182
G1 X180.585 Y131.853 E.01674
G1 X186.344 Y137.612 E.25549
G1 X186.344 Y138.145 E.01674
G1 X180.051 Y131.853 E.27916
G1 X179.518 Y131.853 E.01674
G1 X186.344 Y138.679 E.30283
G1 X186.344 Y139.212 E.01674
G1 X178.984 Y131.853 E.3265
G1 X178.451 Y131.853 E.01674
G1 X186.344 Y139.746 E.35017
G1 X186.344 Y140.279 E.01674
G1 X177.917 Y131.853 E.37385
G1 X177.384 Y131.853 E.01674
G1 X186.344 Y140.813 E.39752
G1 X186.344 Y141.347 E.01674
G1 X176.85 Y131.853 E.42119
G1 X176.317 Y131.853 E.01674
G1 X186.344 Y141.88 E.44486
G1 X186.344 Y142.414 E.01674
G1 X175.783 Y131.853 E.46853
G1 X175.25 Y131.853 E.01674
G1 X186.344 Y142.947 E.4922
G1 X186.344 Y143.481 E.01674
G1 X174.716 Y131.853 E.51587
G1 X174.182 Y131.853 E.01674
G1 X186.344 Y144.014 E.53954
G1 X186.344 Y144.548 E.01674
G1 X173.649 Y131.853 E.56321
G1 X173.115 Y131.853 E.01674
G1 X186.344 Y145.081 E.58689
G1 X186.344 Y145.615 E.01674
G1 X172.582 Y131.853 E.61056
G1 X172.048 Y131.853 E.01674
G1 X186.344 Y146.149 E.63423
G1 X186.344 Y146.682 E.01674
G1 X171.515 Y131.853 E.6579
G1 X170.981 Y131.853 E.01674
G1 X186.344 Y147.216 E.68157
G1 X186.344 Y147.749 E.01674
G1 X170.448 Y131.853 E.70524
G1 X169.914 Y131.853 E.01674
G1 X186.344 Y148.283 E.72891
G1 X186.344 Y148.816 E.01674
G1 X169.38 Y131.853 E.75258
G1 X168.847 Y131.853 E.01674
G1 X186.344 Y149.35 E.77625
G1 X186.344 Y149.883 E.01674
G1 X168.313 Y131.853 E.79992
G1 X167.78 Y131.853 E.01674
M73 Q0 S301
G1 X186.344 Y150.417 E.8236
G1 X186.344 Y150.95 E.01674
G1 X167.246 Y131.853 E.84727
G1 X166.713 Y131.853 E.01674
G1 X186.344 Y151.484 E.87094
G1 X186.344 Y152.018 E.01674
G1 X166.179 Y131.853 E.89461
G1 X165.646 Y131.853 E.01674
G1 X186.344 Y152.551 E.91828
G1 X186.344 Y153.085 E.01674
G1 X165.112 Y131.853 E.94195
G1 X164.578 Y131.853 E.01674
G1 X186.344 Y153.618 E.96562
G1 X186.344 Y154.152 E.01674
G1 X164.045 Y131.853 E.98929
G1 X163.511 Y131.853 E.01674
G1 X186.344 Y154.685 E1.01296
G1 X186.344 Y155.219 E.01674
G1 X162.978 Y131.853 E1.03663
G1 X162.444 Y131.853 E.01674
G1 X186.344 Y155.752 E1.06031
G1 X186.344 Y156.286 E.01674
G1 X161.911 Y131.853 E1.08398
G1 X161.377 Y131.853 E.01674
G1 X186.344 Y156.82 E1.10765
G1 X186.344 Y157.353 E.01674
G1 X160.844 Y131.853 E1.13132
G1 X160.31 Y131.853 E.01674
G1 X186.344 Y157.887 E1.15499
G1 X186.344 Y158.42 E.01674
G1 X159.777 Y131.853 E1.17866
G1 X159.243 Y131.853 E.01674
G1 X186.344 Y158.954 E1.20233
G1 X186.344 Y159.487 E.01674
G1 X158.709 Y131.853 E1.226
G1 X158.176 Y131.853 E.01674
G1 X186.344 Y160.021 E1.24967
G1 X186.344 Y160.554 E.01674
G1 X157.642 Y131.853 E1.27334
G1 X157.109 Y131.853 E.01674
M73 P0 R296
G1 X186.344 Y161.088 E1.29702
G1 X186.344 Y161.622 E.01674
G1 X156.575 Y131.853 E1.32069
G1 X156.042 Y131.853 E.01674
G1 X186.344 Y162.155 E1.34436
G1 X186.344 Y162.689 E.01674
G1 X155.508 Y131.853 E1.36803
G1 X154.975 Y131.853 E.01674
G1 X186.344 Y163.222 E1.3917
G1 X186.344 Y163.756 E.01674
G1 X154.441 Y131.853 E1.41537
G1 X153.907 Y131.853 E.01674
G1 X186.344 Y164.289 E1.43904
G1 X186.344 Y164.823 E.01674
G1 X153.374 Y131.853 E1.46271
G1 X152.84 Y131.853 E.01674
G1 X186.344 Y165.356 E1.48638
G1 X186.344 Y165.89 E.01674
G1 X152.307 Y131.853 E1.51006
G1 X151.773 Y131.853 E.01674
G1 X186.344 Y166.423 E1.53373
G1 X186.344 Y166.957 E.01674
M73 Q0 S300
G1 X151.24 Y131.853 E1.5574
G1 X150.706 Y131.853 E.01674
G1 X186.344 Y167.491 E1.58107
G1 X186.344 Y168.024 E.01674
G1 X150.173 Y131.853 E1.60474
G1 X149.639 Y131.853 E.01674
M73 P1 R296
G1 X186.344 Y168.558 E1.62841
G1 X186.344 Y169.091 E.01674
M73 Q1 S300
G1 X149.105 Y131.853 E1.65208
G1 X148.572 Y131.853 E.01674
G1 X186.344 Y169.625 E1.67575
G1 X186.344 Y170.158 E.01674
G1 X148.038 Y131.853 E1.69942
G1 X147.505 Y131.853 E.01674
G1 X186.344 Y170.692 E1.72309
G1 X186.344 Y171.225 E.01674
G1 X146.971 Y131.853 E1.74677
G1 X146.438 Y131.853 E.01674
G1 X186.344 Y171.759 E1.77044
G1 X186.344 Y172.293 E.01674
G1 X145.904 Y131.853 E1.79411
G1 X145.371 Y131.853 E.01674
G1 X186.344 Y172.826 E1.81778
G1 X186.344 Y173.36 E.01674
G1 X144.837 Y131.853 E1.84145
G1 X144.304 Y131.853 E.01674
M73 P1 R295
G1 X186.344 Y173.893 E1.86512
G1 X186.344 Y174.427 E.01674
G1 X143.77 Y131.853 E1.88879
G1 X143.236 Y131.853 E.01674
G1 X186.344 Y174.96 E1.91246
G1 X186.344 Y175.494 E.01674
G1 X142.703 Y131.853 E1.93613
G1 X142.169 Y131.853 E.01674
G1 X186.344 Y176.027 E1.9598
G1 X186.344 Y176.561 E.01674
G1 X141.636 Y131.853 E1.98348
G1 X141.102 Y131.853 E.01674
G1 X186.344 Y177.095 E2.00715
G1 X186.344 Y177.628 E.01674
G1 X140.569 Y131.853 E2.03082
G1 X140.035 Y131.853 E.01674
M73 Q1 S299
G1 X186.344 Y178.162 E2.05449
G1 X186.344 Y178.695 E.01674
G1 X145.785 Y138.137 E1.79938
G1 X145.76 Y137.857 E.0088
G1 X145.659 Y137.622 E.00803
G1 X145.567 Y137.498 E.00484
G1 X145.446 Y137.388 E.00513
G1 X145.296 Y137.298 E.00548
G1 X145.123 Y137.239 E.00574
G1 X144.868 Y137.219 E.00803
G1 X139.502 Y131.853 E.23807
G1 X138.968 Y131.853 E.01674
G1 X144.334 Y137.219 E.23807
G1 X143.801 Y137.219 E.01674
G1 X138.434 Y131.853 E.23807
G1 X137.901 Y131.853 E.01674
G1 X143.267 Y137.219 E.23807
G1 X142.734 Y137.219 E.01674
G1 X137.367 Y131.853 E.23807
G1 X136.834 Y131.853 E.01674
G1 X142.2 Y137.219 E.23807
G1 X141.666 Y137.219 E.01674
G1 X136.557 Y132.109 E.2267
G1 X136.557 Y132.643 E.01674
G1 X141.133 Y137.219 E.20303
G1 X140.599 Y137.219 E.01674
G1 X136.557 Y133.176 E.17936
G1 X136.557 Y133.71 E.01674
G1 X140.066 Y137.219 E.15569
G1 X139.532 Y137.219 E.01674
G1 X136.557 Y134.243 E.13201
G1 X136.557 Y134.777 E.01674
G1 X138.999 Y137.219 E.10834
G1 X138.465 Y137.219 E.01674
G1 X136.557 Y135.311 E.08467
G1 X136.557 Y135.844 E.01674
G1 X137.932 Y137.219 E.061
G1 X137.398 Y137.219 E.01674
G1 X136.557 Y136.378 E.03733
G1 X136.557 Y136.911 E.01674
G1 X137.034 Y137.389 E.02119
M204 S1000
;WIPE_START
G1 F8640
G1 X136.557 Y136.911 E-.15595
G1 X136.557 Y136.378 E-.1232
G1 X137.398 Y137.219 E-.27477
G1 X137.932 Y137.219 E-.1232
G1 X137.678 Y136.965 E-.08288
;WIPE_END
G1 E-.04 F2100
G1 Z.6 F720
G1 X145.616 Y138.5 F10800
G1 Z.2 F720
G1 E.8 F2100
M204 S800
G1 F1200
G1 X186.344 Y179.229 E1.80691
G1 X186.344 Y179.762 E.01674
G1 X145.785 Y139.204 E1.79938
G1 X145.785 Y139.737 E.01674
G1 X186.344 Y180.296 E1.79938
G1 X186.344 Y180.829 E.01674
G1 X145.785 Y140.271 E1.79938
G1 X145.785 Y140.804 E.01674
G1 X186.344 Y181.363 E1.79938
G1 X186.344 Y181.896 E.01674
G1 X145.785 Y141.338 E1.79938
G1 X145.785 Y141.871 E.01674
G1 X186.344 Y182.43 E1.79938
G1 X186.344 Y182.964 E.01674
G1 X145.785 Y142.405 E1.79938
G1 X145.785 Y142.939 E.01674
M73 P1 R294
G1 X186.344 Y183.497 E1.79938
G1 X186.344 Y184.031 E.01674
G1 X145.785 Y143.472 E1.79938
G1 X145.785 Y144.006 E.01674
G1 X186.344 Y184.564 E1.79938
G1 X186.344 Y185.098 E.01674
G1 X145.785 Y144.539 E1.79938
G1 X145.785 Y145.073 E.01674
G1 X186.344 Y185.631 E1.79938
G1 X186.344 Y186.165 E.01674
G1 X145.785 Y145.606 E1.79938
G1 X145.785 Y146.14 E.01674
G1 X186.344 Y186.698 E1.79938
G1 X186.344 Y187.232 E.01674
G1 X145.785 Y146.673 E1.79938
G1 X145.77 Y147.192 E.01626
G1 X186.344 Y187.766 E1.80006
G1 X186.344 Y188.299 E.01674
M73 Q1 S298
G1 X145.605 Y147.561 E1.80736
G1 X145.574 Y147.608 E.00179
G1 X145.384 Y147.769 E.0078
G1 X145.312 Y147.801 E.00248
G1 X186.344 Y188.833 E1.82039
G1 X186.344 Y189.366 E.01674
G1 X144.873 Y147.895 E1.83987
G1 X144.339 Y147.895 E.01674
G1 X186.157 Y189.713 E1.85526
G1 X185.624 Y189.713 E.01674
G1 X143.806 Y147.895 E1.85526
G1 X143.272 Y147.895 E.01674
G1 X185.09 Y189.713 E1.85526
G1 X184.557 Y189.713 E.01674
G1 X142.739 Y147.895 E1.85526
G1 X142.205 Y147.895 E.01674
G1 X184.023 Y189.713 E1.85526
G1 X183.489 Y189.713 E.01674
G1 X141.671 Y147.895 E1.85526
G1 X141.138 Y147.895 E.01674
G1 X182.956 Y189.713 E1.85526
G1 X182.422 Y189.713 E.01674
G1 X140.604 Y147.895 E1.85526
G1 X140.071 Y147.895 E.01674
M73 P1 R293
G1 X181.889 Y189.713 E1.85526
G1 X181.355 Y189.713 E.01674
G1 X139.537 Y147.895 E1.85526
G1 X139.004 Y147.895 E.01674
G1 X180.822 Y189.713 E1.85526
G1 X180.288 Y189.713 E.01674
G1 X138.47 Y147.895 E1.85526
G1 X137.937 Y147.895 E.01674
G1 X179.755 Y189.713 E1.85526
G1 X179.221 Y189.713 E.01674
G1 X137.403 Y147.895 E1.85526
G1 X136.869 Y147.895 E.01674
G1 X178.688 Y189.713 E1.85526
G1 X178.154 Y189.713 E.01674
G1 X136.336 Y147.895 E1.85526
G1 X135.802 Y147.895 E.01674
G1 X177.62 Y189.713 E1.85526
G1 X177.087 Y189.713 E.01674
M73 Q1 S297
G1 X135.269 Y147.895 E1.85526
G1 X134.735 Y147.895 E.01674
G1 X176.553 Y189.713 E1.85526
G1 X176.02 Y189.713 E.01674
M73 P2 R293
G1 X134.202 Y147.895 E1.85526
G1 X133.668 Y147.895 E.01674
M73 Q2 S297
G1 X175.486 Y189.713 E1.85526
G1 X174.953 Y189.713 E.01674
G1 X133.135 Y147.895 E1.85526
G1 X132.601 Y147.895 E.01674
G1 X174.419 Y189.713 E1.85526
G1 X173.886 Y189.713 E.01674
G1 X132.067 Y147.895 E1.85526
G1 X131.534 Y147.895 E.01674
G1 X173.352 Y189.713 E1.85526
G1 X172.818 Y189.713 E.01674
G1 X131 Y147.895 E1.85526
G1 X130.467 Y147.895 E.01674
G1 X172.285 Y189.713 E1.85526
G1 X171.751 Y189.713 E.01674
G1 X129.933 Y147.895 E1.85526
G1 X129.4 Y147.895 E.01674
M73 P2 R292
G1 X171.218 Y189.713 E1.85526
G1 X170.684 Y189.713 E.01674
G1 X128.866 Y147.895 E1.85526
G1 X128.333 Y147.895 E.01674
G1 X170.151 Y189.713 E1.85526
G1 X169.617 Y189.713 E.01674
G1 X127.799 Y147.895 E1.85526
G1 X127.266 Y147.895 E.01674
G1 X169.084 Y189.713 E1.85526
G1 X168.55 Y189.713 E.01674
G1 X126.8 Y147.963 E1.85226
G1 X126.8 Y148.496 E.01674
G1 X168.016 Y189.713 E1.82859
G1 X167.483 Y189.713 E.01674
G1 X126.8 Y149.03 E1.80492
G1 X126.8 Y149.563 E.01674
G1 X166.949 Y189.713 E1.78125
G1 X166.416 Y189.713 E.01674
M73 Q2 S296
G1 X126.8 Y150.097 E1.75758
G1 X126.8 Y150.63 E.01674
G1 X165.882 Y189.713 E1.73391
G1 X165.349 Y189.713 E.01674
G1 X126.8 Y151.164 E1.71023
G1 X126.8 Y151.698 E.01674
G1 X164.815 Y189.713 E1.68656
G1 X164.282 Y189.713 E.01674
G1 X126.8 Y152.231 E1.66289
G1 X126.8 Y152.765 E.01674
G1 X163.748 Y189.713 E1.63922
G1 X163.215 Y189.713 E.01674
G1 X126.8 Y153.298 E1.61555
G1 X126.8 Y153.832 E.01674
G1 X162.681 Y189.713 E1.59188
G1 X162.147 Y189.713 E.01674
G1 X126.8 Y154.365 E1.56821
G1 X126.8 Y154.899 E.01674
G1 X161.614 Y189.713 E1.54454
G1 X161.08 Y189.713 E.01674
G1 X126.8 Y155.432 E1.52087
G1 X126.8 Y155.966 E.01674
G1 X160.547 Y189.713 E1.4972
G1 X160.013 Y189.713 E.01674
G1 X126.8 Y156.499 E1.47352
M73 P2 R291
G1 X126.8 Y157.033 E.01674
G1 X159.48 Y189.713 E1.44985
G1 X158.946 Y189.713 E.01674
G1 X126.8 Y157.567 E1.42618
G1 X126.8 Y158.1 E.01674
G1 X158.413 Y189.713 E1.40251
G1 X157.879 Y189.713 E.01674
G1 X126.8 Y158.634 E1.37884
G1 X126.8 Y159.167 E.01674
G1 X157.345 Y189.713 E1.35517
G1 X156.812 Y189.713 E.01674
G1 X126.8 Y159.701 E1.3315
G1 X126.8 Y160.234 E.01674
G1 X156.278 Y189.713 E1.30783
G1 X155.745 Y189.713 E.01674
G1 X126.8 Y160.768 E1.28416
G1 X126.8 Y161.301 E.01674
G1 X155.211 Y189.713 E1.26048
G1 X154.678 Y189.713 E.01674
G1 X126.8 Y161.835 E1.23681
G1 X126.8 Y162.369 E.01674
G1 X154.144 Y189.713 E1.21314
G1 X153.611 Y189.713 E.01674
G1 X126.8 Y162.902 E1.18947
G1 X126.8 Y163.436 E.01674
M73 Q2 S295
G1 X153.077 Y189.713 E1.1658
G1 X152.543 Y189.713 E.01674
G1 X126.8 Y163.969 E1.14213
G1 X126.8 Y164.503 E.01674
G1 X152.01 Y189.713 E1.11846
G1 X151.476 Y189.713 E.01674
G1 X126.8 Y165.036 E1.09479
G1 X126.8 Y165.57 E.01674
G1 X150.943 Y189.713 E1.07112
