; generated by PrusaSlicer 2.5.0+win64 on 2023-03-18 at 15:48:31 UTC


;
;
; 

; external perimeters extrusion width = 0.60mm
; perimeters extrusion width = 0.50mm
; infill extrusion width = 0.50mm
; solid infill extrusion width = 0.50mm
; top infill extrusion width = 0.45mm
; first layer extrusion width = 0.42mm

M73 P0 R80
M73 Q0 S80
M201 X1000 Y1000 Z200 E5000 ; sets maximum accelerations, mm/sec^2
M203 X200 Y200 Z12 E120 ; sets maximum feedrates, mm / sec
M204 P1250 R1250 T1250 ; sets acceleration (P, T) and retract acceleration (R), mm/sec^2
M205 X8.00 Y8.00 Z0.40 E4.50 ; sets the jerk limits, mm/sec
M205 S0 T0 ; sets the minimum extruding and travel feed rate, mm/sec
M107
;TYPE:Custom
M862.3 P "MK3S" ; printer model check
M862.1 P0.4 ; nozzle diameter check
M115 U3.12.2 ; tell printer latest fw version
G90 ; use absolute coordinates
M83 ; extruder relative mode
M104 S215 ; set extruder temp
M140 S60 ; set bed temp
M190 S60 ; wait for bed temp
M109 S215 ; wait for extruder temp
G28 W ; home all without mesh bed level
G80 ; mesh bed leveling

G1 Z0.2 F720
G1 Y-3 F1000 ; go outside print area
G92 E0
G1 X60 E9 F1000 ; intro line
G1 X100 E12.5 F1000 ; intro line

G92 E0
M221 S95

; Don't change E values below. Excessive value can damage the printer.

M907 E538 ; set extruder motor current
G21 ; set units to millimeters
G90 ; use absolute coordinates
M83 ; use relative distances for extrusion
M900 K0.05 ; Filament gcode LA 1.5
M900 K30 ; Filament gcode LA 1.0
M107
;LAYER_CHANGE
;Z:0.2
;HEIGHT:0.2
;BEFORE_LAYER_CHANGE
G92 E0.0
;0.2


G1 E-.8 F2100
G1 Z.4 F720
;AFTER_LAYER_CHANGE
;0.2
G1 X61.04 Y72.834 F10800
G1 Z.2 F720
G1 E.8 F2100
M204 S800
;TYPE:Skirt/Brim
;WIDTH:0.42
G1 F1200
G1 X62 Y72.623 E.03083
G1 X188 Y72.623 E3.95064
G1 X189.307 Y73.015 E.04278
G1 X190.183 Y74.06 E.04278
G1 X190.377 Y75 E.03008
G1 X190.377 Y135 E1.88126
G1 X189.985 Y136.307 E.04278
M73 P0 R79
G1 X188.94 Y137.183 E.04278
G1 X188 Y137.377 E.03008
G1 X62 Y137.377 E3.95064
G1 X60.693 Y136.985 E.04278
G1 X59.817 Y135.94 E.04278
G1 X59.623 Y135 E.03008
G1 X59.623 Y75 E1.88126
G1 X60.015 Y73.693 E.04278
M73 Q0 S79
G1 X60.994 Y72.872 E.04006
M204 S1000
; printing object Backplate.stl id:0 copy 0
;WIPE_START
G1 F8640
G1 X62 Y72.623 E-.23941
G1 X64.255 Y72.623 E-.52059
;WIPE_END
G1 E-.04 F2100
G1 Z.6 F720
G1 X145.602 Y81.736 F10800
G1 Z.2 F720
G1 E.8 F2100
M204 S800
;TYPE:Perimeter
;WIDTH:0.419999
G1 F1200
G1 X145.523 Y81.719 E.00252
G1 X136.86 Y81.719 E.27162
G1 X136.86 Y75.787 E.18599
G1 X187.213 Y75.787 E1.57877
G1 X187.213 Y134.213 E1.8319
G1 X62.787 Y134.213 E3.90128
G1 X62.787 Y75.787 E1.8319
G1 X111.4 Y75.787 E1.52422
G1 X111.4 Y130.56 E1.71735
G1 X111.414 Y130.684 E.00392
M73 Q1 S79
G1 X111.576 Y130.969 E.01029
G1 X111.748 Y131.082 E.00646
G1 X111.966 Y131.125 E.00696
G1 X126.537 Y131.125 E.45689
G1 X126.635 Y131.117 E.00308
M73 P1 R79
G1 X126.927 Y130.969 E.01027
G1 X127.036 Y130.826 E.00565
G1 X127.103 Y130.56 E.0086
G1 X127.103 Y91.829 E1.21436
G1 X145.523 Y91.829 E.57755
G1 X145.821 Y91.745 E.0097
G1 X146.016 Y91.542 E.00882
G1 X146.089 Y91.264 E.00901
G1 X146.089 Y82.285 E.28153
G1 X146.071 Y82.145 E.0044
G1 X145.943 Y81.905 E.00853
G1 X145.763 Y81.772 E.00703
G1 X145.66 Y81.749 E.00329
M204 S1000
G1 X145.523 Y82.096 F10800
M204 S800
;TYPE:External perimeter
G1 F1200
G1 X136.483 Y82.096 E.28345
G1 X136.483 Y75.41 E.20963
G1 X187.59 Y75.41 E1.60242
G1 X187.59 Y134.59 E1.85554
G1 X62.41 Y134.59 E3.92492
G1 X62.41 Y75.41 E1.85554
G1 X111.777 Y75.41 E1.54787
G1 X111.777 Y130.56 E1.72918
G1 X111.836 Y130.696 E.00466
G1 X111.966 Y130.748 E.00439
G1 X126.537 Y130.748 E.45689
G1 X126.667 Y130.696 E.00439
G1 X126.726 Y130.56 E.00466
G1 X126.726 Y91.452 E1.22619
G1 X145.523 Y91.452 E.58937
M73 P1 R78
G1 X145.643 Y91.41 E.00398
G1 X145.712 Y91.264 E.00506
G1 X145.712 Y82.285 E.28153
G1 X145.663 Y82.158 E.00424
G1 X145.578 Y82.12 E.00292
M204 S1000
G1 X145.42 Y81.71 F10800
;WIPE_START
G1 F8640
G1 X142.287 Y82.112 E-.76
;WIPE_END
G1 E-.04 F2100
G1 Z.6 F720
G1 X186.337 Y75.9 F10800
G1 Z.2 F720
G1 E.8 F2100
M204 S800
;TYPE:Solid infill
;WIDTH:0.420197
G1 F1200
G1 X186.93 Y76.493 E.02631
G1 X186.93 Y77.027 E.01674
G1 X185.973 Y76.07 E.04245
G1 X185.44 Y76.07 E.01674
G1 X186.93 Y77.56 E.06612
G1 X186.93 Y78.094 E.01674
G1 X184.906 Y76.07 E.08979
G1 X184.373 Y76.07 E.01674
G1 X186.93 Y78.627 E.11346
G1 X186.93 Y79.161 E.01674
G1 X183.839 Y76.07 E.13713
G1 X183.306 Y76.07 E.01674
G1 X186.93 Y79.694 E.16081
G1 X186.93 Y80.228 E.01674
G1 X182.772 Y76.07 E.18448
G1 X182.238 Y76.07 E.01674
G1 X186.93 Y80.762 E.20815
G1 X186.93 Y81.295 E.01674
G1 X181.705 Y76.07 E.23182
G1 X181.171 Y76.07 E.01674
G1 X186.93 Y81.829 E.25549
G1 X186.93 Y82.362 E.01674
G1 X180.638 Y76.07 E.27916
G1 X180.104 Y76.07 E.01674
G1 X186.93 Y82.896 E.30283
G1 X186.93 Y83.429 E.01674
G1 X179.571 Y76.07 E.3265
G1 X179.037 Y76.07 E.01674
G1 X186.93 Y83.963 E.35017
G1 X186.93 Y84.496 E.01674
G1 X178.504 Y76.07 E.37384
G1 X177.97 Y76.07 E.01674
G1 X186.93 Y85.03 E.39751
G1 X186.93 Y85.564 E.01674
M73 Q1 S78
G1 X177.436 Y76.07 E.42119
G1 X176.903 Y76.07 E.01674
G1 X186.93 Y86.097 E.44486
G1 X186.93 Y86.631 E.01674
G1 X176.369 Y76.07 E.46853
G1 X175.836 Y76.07 E.01674
G1 X186.93 Y87.164 E.4922
G1 X186.93 Y87.698 E.01674
G1 X175.302 Y76.07 E.51587
G1 X174.769 Y76.07 E.01674
G1 X186.93 Y88.231 E.53954
G1 X186.93 Y88.765 E.01674
G1 X174.235 Y76.07 E.56321
G1 X173.702 Y76.07 E.01674
G1 X186.93 Y89.298 E.58688
G1 X186.93 Y89.832 E.01674
G1 X173.168 Y76.07 E.61055
G1 X172.635 Y76.07 E.01674
G1 X186.93 Y90.365 E.63422
G1 X186.93 Y90.899 E.01674
G1 X172.101 Y76.07 E.65789
G1 X171.567 Y76.07 E.01674
G1 X186.93 Y91.433 E.68157
G1 X186.93 Y91.966 E.01674
G1 X171.034 Y76.07 E.70524
G1 X170.5 Y76.07 E.01674
M73 P2 R78
M73 Q2 S78
G1 X186.93 Y92.5 E.72891
G1 X186.93 Y93.033 E.01674
G1 X169.967 Y76.07 E.75258
G1 X169.433 Y76.07 E.01674
G1 X186.93 Y93.567 E.77625
G1 X186.93 Y94.1 E.01674
G1 X168.9 Y76.07 E.79992
G1 X168.366 Y76.07 E.01674
G1 X186.93 Y94.634 E.82359
G1 X186.93 Y95.167 E.01674
G1 X167.833 Y76.07 E.84726
G1 X167.299 Y76.07 E.01674
G1 X186.93 Y95.701 E.87093
G1 X186.93 Y96.235 E.01674
G1 X166.765 Y76.07 E.8946
G1 X166.232 Y76.07 E.01674
G1 X186.93 Y96.768 E.91827
G1 X186.93 Y97.302 E.01674
G1 X165.698 Y76.07 E.94195
G1 X165.165 Y76.07 E.01674
G1 X186.93 Y97.835 E.96562
G1 X186.93 Y98.369 E.01674
G1 X164.631 Y76.07 E.98929
G1 X164.098 Y76.07 E.01674
G1 X186.93 Y98.902 E1.01296
G1 X186.93 Y99.436 E.01674
G1 X163.564 Y76.07 E1.03663
G1 X163.031 Y76.07 E.01674
G1 X186.93 Y99.969 E1.0603
G1 X186.93 Y100.503 E.01674
G1 X162.497 Y76.07 E1.08397
G1 X161.963 Y76.07 E.01674
G1 X186.93 Y101.037 E1.10764
G1 X186.93 Y101.57 E.01674
G1 X161.43 Y76.07 E1.13131
G1 X160.896 Y76.07 E.01674
G1 X186.93 Y102.104 E1.15498
G1 X186.93 Y102.637 E.01674
G1 X160.363 Y76.07 E1.17865
G1 X159.829 Y76.07 E.01674
G1 X186.93 Y103.171 E1.20233
G1 X186.93 Y103.704 E.01674
G1 X159.296 Y76.07 E1.226
G1 X158.762 Y76.07 E.01674
G1 X186.93 Y104.238 E1.24967
G1 X186.93 Y104.771 E.01674
G1 X158.229 Y76.07 E1.27334
G1 X157.695 Y76.07 E.01674
M73 P2 R77
G1 X186.93 Y105.305 E1.29701
G1 X186.93 Y105.838 E.01674
G1 X157.162 Y76.07 E1.32068
G1 X156.628 Y76.07 E.01674
G1 X186.93 Y106.372 E1.34435
G1 X186.93 Y106.906 E.01674
G1 X156.094 Y76.07 E1.36802
G1 X155.561 Y76.07 E.01674
M73 Q3 S77
G1 X186.93 Y107.439 E1.39169
G1 X186.93 Y107.973 E.01674
M73 P3 R77
G1 X155.027 Y76.07 E1.41536
G1 X154.494 Y76.07 E.01674
G1 X186.93 Y108.506 E1.43903
G1 X186.93 Y109.04 E.01674
G1 X153.96 Y76.07 E1.4627
G1 X153.427 Y76.07 E.01674
G1 X186.93 Y109.573 E1.48638
G1 X186.93 Y110.107 E.01674
G1 X152.893 Y76.07 E1.51005
G1 X152.36 Y76.07 E.01674
G1 X186.93 Y110.64 E1.53372
G1 X186.93 Y111.174 E.01674
G1 X151.826 Y76.07 E1.55739
G1 X151.292 Y76.07 E.01674
G1 X186.93 Y111.708 E1.58106
G1 X186.93 Y112.241 E.01674
G1 X150.759 Y76.07 E1.60473
G1 X150.225 Y76.07 E.01674
G1 X186.93 Y112.775 E1.6284
G1 X186.93 Y113.308 E.01674
G1 X149.692 Y76.07 E1.65207
G1 X149.158 Y76.07 E.01674
G1 X186.93 Y113.842 E1.67574
G1 X186.93 Y114.375 E.01674
G1 X148.625 Y76.07 E1.69941
G1 X148.091 Y76.07 E.01674
G1 X186.93 Y114.909 E1.72308
G1 X186.93 Y115.442 E.01674
G1 X147.558 Y76.07 E1.74676
G1 X147.024 Y76.07 E.01674
G1 X186.93 Y115.976 E1.77043
G1 X186.93 Y116.509 E.01674
G1 X146.491 Y76.07 E1.7941
G1 X145.957 Y76.07 E.01674
G1 X186.93 Y117.043 E1.81777
G1 X186.93 Y117.577 E.01674
M73 P4 R77
M73 Q4 S77
G1 X145.423 Y76.07 E1.84144
G1 X144.89 Y76.07 E.01674
M73 P4 R76
G1 X186.93 Y118.11 E1.86511
G1 X186.93 Y118.644 E.01674
G1 X144.356 Y76.07 E1.88878
G1 X143.823 Y76.07 E.01674
G1 X186.93 Y119.177 E1.91245
G1 X186.93 Y119.711 E.01674
M73 Q4 S76
G1 X143.289 Y76.07 E1.93612
G1 X142.756 Y76.07 E.01674
G1 X186.93 Y120.244 E1.95979
G1 X186.93 Y120.778 E.01674
G1 X142.222 Y76.07 E1.98346
G1 X141.689 Y76.07 E.01674
G1 X186.93 Y121.311 E2.00714
G1 X186.93 Y121.845 E.01674
G1 X141.155 Y76.07 E2.03081
G1 X140.621 Y76.07 E.01674
G1 X186.93 Y122.379 E2.05448
G1 X186.93 Y122.912 E.01674
G1 X146.372 Y82.353 E1.79938
G1 X146.346 Y82.074 E.0088
G1 X146.246 Y81.839 E.00803
G1 X146.153 Y81.715 E.00484
G1 X146.032 Y81.605 E.00513
G1 X145.882 Y81.515 E.00548
G1 X145.709 Y81.456 E.00574
G1 X145.454 Y81.436 E.00803
G1 X140.088 Y76.07 E.23807
G1 X139.554 Y76.07 E.01674
G1 X144.921 Y81.436 E.23807
G1 X144.387 Y81.436 E.01674
G1 X139.021 Y76.07 E.23807
G1 X138.487 Y76.07 E.01674
G1 X143.854 Y81.436 E.23807
G1 X143.32 Y81.436 E.01674
G1 X137.954 Y76.07 E.23807
G1 X137.42 Y76.07 E.01674
G1 X142.786 Y81.436 E.23807
G1 X142.253 Y81.436 E.01674
G1 X137.143 Y76.326 E.2267
G1 X137.143 Y76.86 E.01674
G1 X141.719 Y81.436 E.20303
G1 X141.186 Y81.436 E.01674
G1 X137.143 Y77.393 E.17936
G1 X137.143 Y77.927 E.01674
G1 X140.652 Y81.436 E.15569
G1 X140.119 Y81.436 E.01674
G1 X137.143 Y78.46 E.13202
G1 X137.143 Y78.994 E.01674
G1 X139.585 Y81.436 E.10835
G1 X139.052 Y81.436 E.01674
G1 X137.143 Y79.527 E.08468
G1 X137.143 Y80.061 E.01674
G1 X138.518 Y81.436 E.06101
G1 X137.984 Y81.436 E.01674
G1 X137.143 Y80.595 E.03734
G1 X137.143 Y81.128 E.01674
G1 X137.621 Y81.606 E.02119
M204 S1000
;WIPE_START
G1 F8640
G1 X137.143 Y81.128 E-.15599
G1 X137.143 Y80.595 E-.1232
G1 X137.984 Y81.436 E-.27481
G1 X138.518 Y81.436 E-.1232
G1 X138.264 Y81.183 E-.08281
;WIPE_END
G1 E-.04 F2100
G1 Z.6 F720
G1 X146.202 Y82.717 F10800
G1 Z.2 F720
G1 E.8 F2100
M204 S800
G1 F1200
G1 X186.93 Y123.446 E1.8069
G1 X186.93 Y123.979 E.01674
G1 X146.372 Y83.421 E1.79938
G1 X146.372 Y83.954 E.01674
G1 X186.93 Y124.513 E1.79938
G1 X186.93 Y125.046 E.01674
M73 P5 R76
M73 Q5 S76
G1 X146.372 Y84.488 E1.79938
G1 X146.372 Y85.021 E.01674
G1 X186.93 Y125.58 E1.79938
G1 X186.93 Y126.113 E.01674
G1 X146.372 Y85.555 E1.79938
G1 X146.372 Y86.088 E.01674
G1 X186.93 Y126.647 E1.79938
G1 X186.93 Y127.18 E.01674
G1 X146.372 Y86.622 E1.79938
G1 X146.372 Y87.155 E.01674
M73 P5 R75
G1 X186.93 Y127.714 E1.79938
G1 X186.93 Y128.248 E.01674
G1 X146.372 Y87.689 E1.79938
G1 X146.372 Y88.223 E.01674
G1 X186.93 Y128.781 E1.79938
G1 X186.93 Y129.315 E.01674
M73 Q5 S75
G1 X146.372 Y88.756 E1.79938
G1 X146.372 Y89.29 E.01674
G1 X186.93 Y129.848 E1.79938
G1 X186.93 Y130.382 E.01674
G1 X146.372 Y89.823 E1.79938
G1 X146.372 Y90.357 E.01674
G1 X186.93 Y130.915 E1.79938
G1 X186.93 Y131.449 E.01674
G1 X146.372 Y90.89 E1.79938
G1 X146.356 Y91.409 E.01626
G1 X186.93 Y131.982 E1.80006
G1 X186.93 Y132.516 E.01674
G1 X146.192 Y91.778 E1.80735
G1 X146.16 Y91.825 E.0018
G1 X145.97 Y91.986 E.0078
G1 X145.898 Y92.018 E.00247
G1 X186.93 Y133.05 E1.82038
G1 X186.93 Y133.583 E.01674
G1 X145.459 Y92.112 E1.83986
G1 X144.926 Y92.112 E.01674
M73 P6 R75
M73 Q6 S75
G1 X186.744 Y133.93 E1.85525
G1 X186.21 Y133.93 E.01674
G1 X144.392 Y92.112 E1.85525
G1 X143.858 Y92.112 E.01674
G1 X185.677 Y133.93 E1.85525
G1 X185.143 Y133.93 E.01674
G1 X143.325 Y92.112 E1.85525
G1 X142.791 Y92.112 E.01674
G1 X184.609 Y133.93 E1.85525
G1 X184.076 Y133.93 E.01674
G1 X142.258 Y92.112 E1.85525
G1 X141.724 Y92.112 E.01674
G1 X183.542 Y133.93 E1.85525
G1 X183.009 Y133.93 E.01674
G1 X141.191 Y92.112 E1.85525
G1 X140.657 Y92.112 E.01674
M73 P6 R74
G1 X182.475 Y133.93 E1.85525
G1 X181.942 Y133.93 E.01674
G1 X140.124 Y92.112 E1.85525
G1 X139.59 Y92.112 E.01674
G1 X181.408 Y133.93 E1.85525
G1 X180.875 Y133.93 E.01674
M73 Q6 S74
G1 X139.057 Y92.112 E1.85525
G1 X138.523 Y92.112 E.01674
G1 X180.341 Y133.93 E1.85525
G1 X179.807 Y133.93 E.01674
G1 X137.989 Y92.112 E1.85525
G1 X137.456 Y92.112 E.01674
G1 X179.274 Y133.93 E1.85525
G1 X178.74 Y133.93 E.01674
G1 X136.922 Y92.112 E1.85525
G1 X136.389 Y92.112 E.01674
M73 P7 R74
M73 Q7 S74
G1 X178.207 Y133.93 E1.85525
G1 X177.673 Y133.93 E.01674
G1 X135.855 Y92.112 E1.85525
G1 X135.322 Y92.112 E.01674
G1 X177.14 Y133.93 E1.85525
G1 X176.606 Y133.93 E.01674
G1 X134.788 Y92.112 E1.85525
G1 X134.255 Y92.112 E.01674
G1 X176.073 Y133.93 E1.85525
G1 X175.539 Y133.93 E.01674
G1 X133.721 Y92.112 E1.85525
G1 X133.187 Y92.112 E.01674
G1 X175.006 Y133.93 E1.85525
G1 X174.472 Y133.93 E.01674
G1 X132.654 Y92.112 E1.85525
G1 X132.12 Y92.112 E.01674
G1 X173.938 Y133.93 E1.85525
G1 X173.405 Y133.93 E.01674
G1 X131.587 Y92.112 E1.85525
G1 X131.053 Y92.112 E.01674
G1 X172.871 Y133.93 E1.85525
G1 X172.338 Y133.93 E.01674
G1 X130.52 Y92.112 E1.85525
G1 X129.986 Y92.112 E.01674
M73 P7 R73
G1 X171.804 Y133.93 E1.85525
G1 X171.271 Y133.93 E.01674
G1 X129.453 Y92.112 E1.85525
G1 X128.919 Y92.112 E.01674
G1 X170.737 Y133.93 E1.85525
G1 X170.204 Y133.93 E.01674
M73 Q7 S73
G1 X128.386 Y92.112 E1.85525
G1 X127.852 Y92.112 E.01674
M73 P8 R73
M73 Q8 S73
G1 X169.67 Y133.93 E1.85525
G1 X169.136 Y133.93 E.01674
G1 X127.386 Y92.179 E1.85226
G1 X127.386 Y92.713 E.01674
G1 X168.603 Y133.93 E1.82859
G1 X168.069 Y133.93 E.01674
G1 X127.386 Y93.247 E1.80492
G1 X127.386 Y93.78 E.01674
G1 X167.536 Y133.93 E1.78125
G1 X167.002 Y133.93 E.01674
G1 X127.386 Y94.314 E1.75758
G1 X127.386 Y94.847 E.01674
G1 X166.469 Y133.93 E1.73391
G1 X165.935 Y133.93 E.01674
G1 X127.386 Y95.381 E1.71024
G1 X127.386 Y95.914 E.01674
G1 X165.402 Y133.93 E1.68657
G1 X164.868 Y133.93 E.01674
G1 X127.386 Y96.448 E1.6629
G1 X127.386 Y96.981 E.01674
G1 X164.335 Y133.93 E1.63922
G1 X163.801 Y133.93 E.01674
G1 X127.386 Y97.515 E1.61555
G1 X127.386 Y98.049 E.01674
G1 X163.267 Y133.93 E1.59188
G1 X162.734 Y133.93 E.01674
G1 X127.386 Y98.582 E1.56821
G1 X127.386 Y99.116 E.01674
G1 X162.2 Y133.93 E1.54454
G1 X161.667 Y133.93 E.01674
G1 X127.386 Y99.649 E1.52087
G1 X127.386 Y100.183 E.01674
G1 X161.133 Y133.93 E1.4972
G1 X160.6 Y133.93 E.01674
M73 P9 R73
M73 Q9 S73
G1 X127.386 Y100.716 E1.47353
G1 X127.386 Y101.25 E.01674
M73 P9 R72
G1 X160.066 Y133.93 E1.44986
G1 X159.533 Y133.93 E.01674
G1 X127.386 Y101.783 E1.42619
G1 X127.386 Y102.317 E.01674
G1 X158.999 Y133.93 E1.40252
G1 X158.465 Y133.93 E.01674
G1 X127.386 Y102.85 E1.37884
G1 X127.386 Y103.384 E.01674
M73 Q9 S72
G1 X157.932 Y133.93 E1.35517
G1 X157.398 Y133.93 E.01674
G1 X127.386 Y103.918 E1.3315
G1 X127.386 Y104.451 E.01674
G1 X156.865 Y133.93 E1.30783
G1 X156.331 Y133.93 E.01674
G1 X127.386 Y104.985 E1.28416
G1 X127.386 Y105.518 E.01674
G1 X155.798 Y133.93 E1.26049
G1 X155.264 Y133.93 E.01674
G1 X127.386 Y106.052 E1.23682
G1 X127.386 Y106.585 E.01674
G1 X154.731 Y133.93 E1.21315
G1 X154.197 Y133.93 E.01674
G1 X127.386 Y107.119 E1.18948
G1 X127.386 Y107.652 E.01674
G1 X153.664 Y133.93 E1.16581
G1 X153.13 Y133.93 E.01674
G1 X127.386 Y108.186 E1.14214
G1 X127.386 Y108.72 E.01674
G1 X152.596 Y133.93 E1.11847
G1 X152.063 Y133.93 E.01674
G1 X127.386 Y109.253 E1.09479
G1 X127.386 Y109.787 E.01674
G1 X151.529 Y133.93 E1.07112
G1 X150.996 Y133.93 E.01674
G1 X127.386 Y110.32 E1.04745
G1 X127.386 Y110.854 E.01674
G1 X150.462 Y133.93 E1.02378
G1 X149.929 Y133.93 E.01674
G1 X127.386 Y111.387 E1.00011
G1 X127.386 Y111.921 E.01674
G1 X149.395 Y133.93 E.97644
G1 X148.862 Y133.93 E.01674
G1 X127.386 Y112.454 E.95277
G1 X127.386 Y112.988 E.01674
G1 X148.328 Y133.93 E.9291
G1 X147.794 Y133.93 E.01674
G1 X127.386 Y113.521 E.90543
G1 X127.386 Y114.055 E.01674
M73 P10 R72
M73 Q10 S72
G1 X147.261 Y133.93 E.88176
