; generated by PrusaSlicer 2.5.2+win64 on 2023-04-28 at 08:44:24 UTC


;
;
; 

; external perimeters extrusion width = 0.60mm
; perimeters extrusion width = 0.50mm
; infill extrusion width = 0.50mm
; solid infill extrusion width = 0.50mm
; top infill extrusion width = 0.45mm
; support material extrusion width = 0.38mm
; first layer extrusion width = 0.42mm

M73 P0 R287
M73 Q0 S290
M201 X1000 Y1000 Z200 E5000 ; sets maximum accelerations, mm/sec^2
M203 X200 Y200 Z12 E120 ; sets maximum feedrates, mm / sec
M204 P1250 R1250 T1250 ; sets acceleration (P, T) and retract acceleration (R), mm/sec^2
M205 X8.00 Y8.00 Z0.40 E4.50 ; sets the jerk limits, mm/sec
M205 S0 T0 ; sets the minimum extruding and travel feed rate, mm/sec
M107
;TYPE:Custom
M862.3 P "MK3S" ; printer model check
M862.1 P0.4 ; nozzle diameter check
M115 U3.12.2 ; tell printer latest fw version
G90 ; use absolute coordinates
M83 ; extruder relative mode
M104 S215 ; set extruder temp
M140 S60 ; set bed temp
M190 S60 ; wait for bed temp
M109 S215 ; wait for extruder temp
G28 W ; home all without mesh bed level
G80 ; mesh bed leveling

G1 Z0.2 F720
G1 Y-3 F1000 ; go outside print area
G92 E0
G1 X60 E9 F1000 ; intro line
G1 X100 E12.5 F1000 ; intro line

G92 E0
M221 S95

; Don't change E values below. Excessive value can damage the printer.

M907 E538 ; set extruder motor current
G21 ; set units to millimeters
G90 ; use absolute coordinates
M83 ; use relative distances for extrusion
M900 K0.05 ; Filament gcode LA 1.5
M900 K30 ; Filament gcode LA 1.0
M107
;LAYER_CHANGE
;Z:0.2
;HEIGHT:0.2
;BEFORE_LAYER_CHANGE
G92 E0.0
;0.2


G1 E-.8 F2100
G1 Z.4 F720
;AFTER_LAYER_CHANGE
;0.2
G1 X43.881 Y28.193 F10800
G1 Z.2 F720
G1 E.8 F2100
M204 S800
;TYPE:Skirt/Brim
;WIDTH:0.42
G1 F1200
G1 X44.926 Y27.317 E.04278
G1 X45.866 Y27.123 E.03008
G1 X142.371 Y27.123 E3.02584
G1 X204.139 Y27.244 E1.93669
G1 X205.445 Y27.638 E.04278
G1 X206.319 Y28.686 E.04278
G1 X206.511 Y29.621 E.02994
G1 X206.511 Y84.621 E1.72449
G1 X206.132 Y85.909 E.04208
G1 X144.364 Y181.787 E3.57604
G1 X143.327 Y182.674 E.04278
G1 X142.366 Y182.877 E.0308
G1 X45.866 Y182.877 E3.02569
G1 X44.559 Y182.485 E.04278
G1 X43.683 Y181.44 E.04278
G1 X43.489 Y180.5 E.03008
G1 X43.489 Y29.5 E4.7345
G1 X43.863 Y28.25 E.0409
M204 S1000
; printing object Case v8.obj id:0 copy 0
;WIPE_START
G1 F8640
G1 X44.926 Y27.317 E-.32671
G1 X45.866 Y27.123 E-.22155
G1 X46.783 Y27.123 E-.21174
;WIPE_END
G1 E-.04 F2100
G1 Z.6 F720
G1 X105.796 Y104.93 F10800
G1 Z.2 F720
G1 E.8 F2100
M204 S800
;TYPE:Support material
G1 F1200
G1 X57.936 Y104.93 E1.50062
G1 X57.936 Y50.07 E1.7201
G1 X105.796 Y50.07 E1.50062
G1 X105.796 Y104.873 E1.71832
M204 S1000
;WIPE_START
G1 F8640
G1 X105.796 Y101.582 E-.76
;WIPE_END
G1 E-.04 F2100
G1 Z.6 F720
G1 X72.373 Y63.951 F10800
G1 Z.2 F720
G1 E.8 F2100
M204 S800
G1 F1200
G1 X72.373 Y90.474 E.83162
G1 X91.949 Y90.474 E.6138
M73 P0 R286
G1 X91.949 Y63.951 E.83162
G1 X72.429 Y63.951 E.61203
M204 S1000
;WIPE_START
G1 F8640
G1 X75.721 Y63.951 E-.76
;WIPE_END
G1 E-.04 F2100
G1 Z.6 F720
G1 X105.308 Y104.76 F10800
G1 Z.2 F720
G1 E.8 F2100
M204 S800
G1 F1200
G1 X105.308 Y50.409 E1.70414
G1 X104.889 Y50.409 E.01314
G1 X104.889 Y104.591 E1.69882
G1 X104.47 Y104.591 E.01314
M73 Q0 S289
G1 X104.47 Y50.409 E1.69882
G1 X104.051 Y50.409 E.01314
G1 X104.051 Y104.591 E1.69882
G1 X103.632 Y104.591 E.01314
G1 X103.632 Y50.409 E1.69882
G1 X103.213 Y50.409 E.01314
G1 X103.213 Y104.591 E1.69882
G1 X102.794 Y104.591 E.01314
G1 X102.794 Y50.409 E1.69882
G1 X102.375 Y50.409 E.01314
G1 X102.375 Y104.591 E1.69882
G1 X101.956 Y104.591 E.01314
G1 X101.956 Y50.409 E1.69882
G1 X101.537 Y50.409 E.01314
G1 X101.537 Y104.591 E1.69882
G1 X101.118 Y104.591 E.01314
G1 X101.118 Y50.409 E1.69882
G1 X100.699 Y50.409 E.01314
G1 X100.699 Y104.591 E1.69882
G1 X100.28 Y104.591 E.01314
G1 X100.28 Y50.409 E1.69882
G1 X99.861 Y50.409 E.01314
G1 X99.861 Y104.591 E1.69882
G1 X99.442 Y104.591 E.01314
G1 X99.442 Y50.409 E1.69882
G1 X99.023 Y50.409 E.01314
G1 X99.023 Y104.591 E1.69882
G1 X98.604 Y104.591 E.01314
G1 X98.604 Y50.409 E1.69882
G1 X98.185 Y50.409 E.01314
G1 X98.185 Y104.591 E1.69882
G1 X97.766 Y104.591 E.01314
G1 X97.767 Y50.409 E1.69882
G1 X97.348 Y50.409 E.01314
G1 X97.348 Y104.591 E1.69882
G1 X96.929 Y104.591 E.01314
G1 X96.929 Y50.409 E1.69882
G1 X96.51 Y50.409 E.01314
M73 P0 R285
G1 X96.51 Y104.591 E1.69882
G1 X96.091 Y104.591 E.01314
G1 X96.091 Y50.409 E1.69882
G1 X95.672 Y50.409 E.01314
G1 X95.672 Y104.591 E1.69882
G1 X95.253 Y104.591 E.01314
M73 Q0 S288
G1 X95.253 Y50.409 E1.69882
G1 X94.834 Y50.409 E.01314
G1 X94.834 Y104.591 E1.69882
G1 X94.415 Y104.591 E.01314
G1 X94.415 Y50.409 E1.69882
G1 X93.996 Y50.409 E.01314
G1 X93.996 Y104.591 E1.69882
G1 X93.577 Y104.591 E.01314
G1 X93.577 Y50.409 E1.69882
G1 X93.158 Y50.409 E.01314
G1 X93.158 Y104.591 E1.69882
G1 X92.739 Y104.591 E.01314
G1 X92.739 Y50.409 E1.69882
G1 X92.32 Y50.409 E.01314
G1 X92.32 Y104.591 E1.69882
G1 X91.901 Y104.591 E.01314
G1 X91.901 Y90.814 E.43197
G1 X91.482 Y90.814 E.01314
G1 X91.482 Y104.591 E.43197
G1 X91.063 Y104.591 E.01314
G1 X91.063 Y90.814 E.43197
G1 X90.644 Y90.814 E.01314
G1 X90.644 Y104.591 E.43197
G1 X90.225 Y104.591 E.01314
G1 X90.225 Y90.814 E.43197
G1 X89.806 Y90.814 E.01314
G1 X89.806 Y104.591 E.43197
G1 X89.387 Y104.591 E.01314
G1 X89.387 Y90.814 E.43197
G1 X88.968 Y90.814 E.01314
G1 X88.968 Y104.591 E.43197
G1 X88.549 Y104.591 E.01314
G1 X88.549 Y90.814 E.43197
G1 X88.13 Y90.814 E.01314
G1 X88.13 Y104.591 E.43197
G1 X87.711 Y104.591 E.01314
G1 X87.711 Y90.814 E.43197
G1 X87.292 Y90.814 E.01314
G1 X87.292 Y104.591 E.43197
G1 X86.873 Y104.591 E.01314
G1 X86.873 Y90.814 E.43197
G1 X86.454 Y90.814 E.01314
G1 X86.454 Y104.591 E.43197
G1 X86.035 Y104.591 E.01314
G1 X86.035 Y90.814 E.43197
G1 X85.616 Y90.814 E.01314
G1 X85.616 Y104.591 E.43197
G1 X85.197 Y104.591 E.01314
G1 X85.197 Y90.814 E.43197
G1 X84.778 Y90.814 E.01314
G1 X84.778 Y104.591 E.43197
G1 X84.359 Y104.591 E.01314
G1 X84.359 Y90.814 E.43197
G1 X83.94 Y90.814 E.01314
G1 X83.94 Y104.591 E.43197
G1 X83.521 Y104.591 E.01314
G1 X83.521 Y90.814 E.43197
G1 X83.102 Y90.814 E.01314
G1 X83.102 Y104.591 E.43197
G1 X82.683 Y104.591 E.01314
G1 X82.683 Y90.814 E.43197
G1 X82.264 Y90.814 E.01314
G1 X82.264 Y104.591 E.43197
G1 X81.845 Y104.591 E.01314
G1 X81.845 Y90.814 E.43197
G1 X81.426 Y90.814 E.01314
G1 X81.426 Y104.591 E.43197
G1 X81.007 Y104.591 E.01314
G1 X81.007 Y90.814 E.43197
G1 X80.588 Y90.814 E.01314
G1 X80.588 Y104.591 E.43197
G1 X80.169 Y104.591 E.01314
G1 X80.169 Y90.814 E.43197
G1 X79.75 Y90.814 E.01314
G1 X79.75 Y104.591 E.43197
G1 X79.332 Y104.591 E.01314
G1 X79.332 Y90.814 E.43197
G1 X78.913 Y90.814 E.01314
G1 X78.913 Y104.591 E.43197
G1 X78.494 Y104.591 E.01314
G1 X78.494 Y90.814 E.43197
G1 X78.075 Y90.814 E.01314
G1 X78.075 Y104.591 E.43197
G1 X77.656 Y104.591 E.01314
G1 X77.656 Y90.814 E.43197
G1 X77.237 Y90.814 E.01314
G1 X77.237 Y104.591 E.43197
G1 X76.818 Y104.591 E.01314
G1 X76.818 Y90.814 E.43197
G1 X76.399 Y90.814 E.01314
G1 X76.399 Y104.591 E.43197
G1 X75.98 Y104.591 E.01314
M73 P0 R284
G1 X75.98 Y90.814 E.43197
G1 X75.561 Y90.814 E.01314
G1 X75.561 Y104.591 E.43197
G1 X75.142 Y104.591 E.01314
G1 X75.142 Y90.814 E.43197
G1 X74.723 Y90.814 E.01314
G1 X74.723 Y104.591 E.43197
G1 X74.304 Y104.591 E.01314
G1 X74.304 Y90.814 E.43197
G1 X73.885 Y90.814 E.01314
M73 P1 R284
G1 X73.885 Y104.591 E.43197
G1 X73.466 Y104.591 E.01314
G1 X73.466 Y90.814 E.43197
G1 X73.047 Y90.814 E.01314
M73 Q1 S288
G1 X73.047 Y104.591 E.43197
G1 X72.628 Y104.591 E.01314
G1 X72.628 Y90.814 E.43197
G1 X72.209 Y90.814 E.01314
G1 X72.209 Y104.591 E.43197
G1 X71.79 Y104.591 E.01314
G1 X71.79 Y50.409 E1.69882
G1 X72.209 Y50.409 E.01314
M73 Q1 S287
G1 X72.209 Y63.612 E.41395
G1 X72.628 Y63.612 E.01314
G1 X72.628 Y50.409 E.41395
G1 X73.047 Y50.409 E.01314
G1 X73.047 Y63.612 E.41395
G1 X73.466 Y63.612 E.01314
G1 X73.466 Y50.409 E.41395
G1 X73.885 Y50.409 E.01314
G1 X73.885 Y63.612 E.41395
G1 X74.304 Y63.612 E.01314
G1 X74.304 Y50.409 E.41395
G1 X74.723 Y50.409 E.01314
G1 X74.723 Y63.612 E.41395
G1 X75.142 Y63.612 E.01314
G1 X75.142 Y50.409 E.41395
G1 X75.561 Y50.409 E.01314
G1 X75.561 Y63.612 E.41395
G1 X75.98 Y63.612 E.01314
G1 X75.98 Y50.409 E.41395
G1 X76.399 Y50.409 E.01314
G1 X76.399 Y63.612 E.41395
G1 X76.818 Y63.612 E.01314
G1 X76.818 Y50.409 E.41395
G1 X77.237 Y50.409 E.01314
G1 X77.237 Y63.612 E.41395
G1 X77.656 Y63.612 E.01314
G1 X77.656 Y50.409 E.41395
G1 X78.075 Y50.409 E.01314
G1 X78.075 Y63.612 E.41395
G1 X78.494 Y63.612 E.01314
G1 X78.494 Y50.409 E.41395
G1 X78.913 Y50.409 E.01314
G1 X78.913 Y63.612 E.41395
G1 X79.332 Y63.612 E.01314
G1 X79.332 Y50.409 E.41395
G1 X79.75 Y50.409 E.01314
G1 X79.75 Y63.612 E.41395
G1 X80.169 Y63.612 E.01314
G1 X80.169 Y50.409 E.41395
G1 X80.588 Y50.409 E.01314
G1 X80.588 Y63.612 E.41395
G1 X81.007 Y63.612 E.01314
G1 X81.007 Y50.409 E.41395
G1 X81.426 Y50.409 E.01314
G1 X81.426 Y63.612 E.41395
G1 X81.845 Y63.612 E.01314
G1 X81.845 Y50.409 E.41395
G1 X82.264 Y50.409 E.01314
G1 X82.264 Y63.612 E.41395
G1 X82.683 Y63.612 E.01314
G1 X82.683 Y50.409 E.41395
G1 X83.102 Y50.409 E.01314
G1 X83.102 Y63.612 E.41395
G1 X83.521 Y63.612 E.01314
G1 X83.521 Y50.409 E.41395
G1 X83.94 Y50.409 E.01314
G1 X83.94 Y63.612 E.41395
G1 X84.359 Y63.612 E.01314
G1 X84.359 Y50.409 E.41395
G1 X84.778 Y50.409 E.01314
G1 X84.778 Y63.612 E.41395
G1 X85.197 Y63.612 E.01314
G1 X85.197 Y50.409 E.41395
G1 X85.616 Y50.409 E.01314
G1 X85.616 Y63.612 E.41395
G1 X86.035 Y63.612 E.01314
G1 X86.035 Y50.409 E.41395
G1 X86.454 Y50.409 E.01314
G1 X86.454 Y63.612 E.41395
G1 X86.873 Y63.612 E.01314
G1 X86.873 Y50.409 E.41395
G1 X87.292 Y50.409 E.01314
G1 X87.292 Y63.612 E.41395
G1 X87.711 Y63.612 E.01314
G1 X87.711 Y50.409 E.41395
G1 X88.13 Y50.409 E.01314
G1 X88.13 Y63.612 E.41395
G1 X88.549 Y63.612 E.01314
G1 X88.549 Y50.409 E.41395
G1 X88.968 Y50.409 E.01314
G1 X88.968 Y63.612 E.41395
G1 X89.387 Y63.612 E.01314
G1 X89.387 Y50.409 E.41395
G1 X89.806 Y50.409 E.01314
G1 X89.806 Y63.612 E.41395
G1 X90.225 Y63.612 E.01314
G1 X90.225 Y50.409 E.41395
G1 X90.644 Y50.409 E.01314
G1 X90.644 Y63.612 E.41395
G1 X91.063 Y63.612 E.01314
G1 X91.063 Y50.409 E.41395
G1 X91.482 Y50.409 E.01314
G1 X91.482 Y63.612 E.41395
G1 X91.901 Y63.612 E.01314
G1 X91.901 Y50.24 E.41927
M204 S1000
;WIPE_START
G1 F8640
G1 X91.901 Y53.531 E-.76
;WIPE_END
G1 E-.04 F2100
G1 Z.6 F720
G1 X71.371 Y104.76 F10800
G1 Z.2 F720
G1 E.8 F2100
M204 S800
G1 F1200
G1 X71.371 Y50.409 E1.70414
G1 X70.952 Y50.409 E.01314
G1 X70.952 Y104.591 E1.69882
G1 X70.533 Y104.591 E.01314
G1 X70.533 Y50.409 E1.69882
G1 X70.114 Y50.409 E.01314
G1 X70.114 Y104.591 E1.69882
G1 X69.695 Y104.591 E.01314
G1 X69.695 Y50.409 E1.69882
G1 X69.276 Y50.409 E.01314
G1 X69.276 Y104.591 E1.69882
G1 X68.857 Y104.591 E.01314
M73 P1 R283
G1 X68.857 Y50.409 E1.69882
G1 X68.438 Y50.409 E.01314
G1 X68.438 Y104.591 E1.69882
G1 X68.019 Y104.591 E.01314
G1 X68.019 Y50.409 E1.69882
G1 X67.6 Y50.409 E.01314
M73 Q1 S286
G1 X67.6 Y104.591 E1.69882
G1 X67.181 Y104.591 E.01314
G1 X67.181 Y50.409 E1.69882
G1 X66.762 Y50.409 E.01314
G1 X66.762 Y104.591 E1.69882
G1 X66.343 Y104.591 E.01314
G1 X66.343 Y50.409 E1.69882
G1 X65.924 Y50.409 E.01314
G1 X65.924 Y104.591 E1.69882
G1 X65.505 Y104.591 E.01314
G1 X65.505 Y50.409 E1.69882
G1 X65.086 Y50.409 E.01314
G1 X65.086 Y104.591 E1.69882
G1 X64.667 Y104.591 E.01314
G1 X64.667 Y50.409 E1.69882
G1 X64.248 Y50.409 E.01314
G1 X64.248 Y104.591 E1.69882
G1 X63.829 Y104.591 E.01314
G1 X63.829 Y50.409 E1.69882
G1 X63.41 Y50.409 E.01314
G1 X63.41 Y104.591 E1.69882
G1 X62.991 Y104.591 E.01314
G1 X62.991 Y50.409 E1.69882
G1 X62.572 Y50.409 E.01314
G1 X62.572 Y104.591 E1.69882
G1 X62.153 Y104.591 E.01314
G1 X62.153 Y50.409 E1.69882
G1 X61.734 Y50.409 E.01314
G1 X61.734 Y104.591 E1.69882
G1 X61.315 Y104.591 E.01314
G1 X61.316 Y50.409 E1.69882
G1 X60.897 Y50.409 E.01314
G1 X60.897 Y104.591 E1.69882
G1 X60.478 Y104.591 E.01314
G1 X60.478 Y50.409 E1.69882
G1 X60.059 Y50.409 E.01314
G1 X60.059 Y104.591 E1.69882
G1 X59.64 Y104.591 E.01314
M73 P1 R282
G1 X59.64 Y50.409 E1.69882
G1 X59.221 Y50.409 E.01314
G1 X59.221 Y104.591 E1.69882
G1 X58.802 Y104.591 E.01314
G1 X58.802 Y50.409 E1.69882
G1 X58.383 Y50.409 E.01314
M73 Q1 S285
G1 X58.383 Y104.76 E1.70414
M204 S1000
;WIPE_START
G1 F8640
G1 X58.383 Y101.469 E-.76
;WIPE_END
G1 E-.04 F2100
G1 Z.6 F720
G1 X125.352 Y129.084 F10800
G1 Z.2 F720
G1 E.8 F2100
M204 S800
;TYPE:Perimeter
;WIDTH:0.419999
G1 F1200
G1 X125.403 Y129.172 E.00317
G1 X127.423 Y134.049 E.16553
G1 X127.461 Y134.192 E.00463
G1 X128.15 Y139.426 E.16553
G1 X128.15 Y139.574 E.00463
G1 X127.461 Y144.808 E.16553
G1 X127.423 Y144.951 E.00463
G1 X125.403 Y149.828 E.16553
G1 X125.329 Y149.956 E.00463
G1 X122.115 Y154.144 E.16553
G1 X122.01 Y154.249 E.00463
G1 X117.822 Y157.463 E.16553
G1 X117.694 Y157.537 E.00463
G1 X112.817 Y159.557 E.16553
G1 X112.674 Y159.595 E.00463
G1 X107.44 Y160.284 E.16553
G1 X107.292 Y160.284 E.00463
G1 X102.058 Y159.595 E.16553
G1 X101.915 Y159.557 E.00463
G1 X97.038 Y157.537 E.16553
G1 X96.91 Y157.463 E.00463
G1 X92.722 Y154.249 E.16553
G1 X92.617 Y154.144 E.00463
G1 X89.403 Y149.956 E.16553
G1 X89.078 Y149.222 E.02517
G1 X87.309 Y144.951 E.14496
G1 X87.271 Y144.808 E.00463
G1 X86.582 Y139.574 E.16553
G1 X86.582 Y139.426 E.00463
G1 X87.271 Y134.192 E.16553
G1 X87.309 Y134.049 E.00463
G1 X89.33 Y129.172 E.16553
G1 X89.403 Y129.044 E.00463
G1 X92.617 Y124.856 E.16553
G1 X92.722 Y124.751 E.00463
G1 X96.91 Y121.537 E.16553
G1 X97.038 Y121.463 E.00463
G1 X101.915 Y119.443 E.16553
G1 X102.058 Y119.405 E.00463
G1 X107.292 Y118.716 E.16553
G1 X108.188 Y118.814 E.02824
G1 X112.674 Y119.405 E.14188
G1 X113.509 Y119.73 E.02809
G1 X117.697 Y121.465 E.14213
G1 X117.822 Y121.537 E.00454
G1 X122.01 Y124.751 E.16553
G1 X122.115 Y124.856 E.00463
G1 X125.32 Y129.033 E.1651
M204 S1000
G1 X125.018 Y129.258 F10800
M204 S800
;TYPE:External perimeter
G1 F1200
G1 X127.087 Y134.241 E.16918
G1 X127.776 Y139.475 E.16553
G1 X127.087 Y144.759 E.16706
G1 X125.03 Y149.726 E.16859
G1 X121.816 Y153.915 E.16553
G1 X117.593 Y157.164 E.16706
G1 X112.625 Y159.221 E.16859
G1 X107.391 Y159.91 E.16553
G1 X102.107 Y159.221 E.16706
G1 X97.14 Y157.164 E.16859
G1 X92.951 Y153.95 E.16553
G1 X89.703 Y149.726 E.16706
G1 X87.645 Y144.759 E.16859
G1 X86.956 Y139.525 E.16553
G1 X87.645 Y134.241 E.16706
G1 X89.703 Y129.274 E.16859
G1 X92.916 Y125.085 E.16553
G1 X97.14 Y121.836 E.16706
G1 X102.107 Y119.779 E.16859
G1 X107.344 Y119.089 E.16563
G1 X112.625 Y119.779 E.16697
G1 X117.593 Y121.836 E.16859
G1 X121.781 Y125.05 E.16553
G1 X124.981 Y129.21 E.16457
M204 S1000
G1 X125.418 Y129.258 F10800
;WIPE_START
G1 F8640
G1 X126.252 Y132.247 E-.76
;WIPE_END
G1 E-.04 F2100
G1 Z.6 F720
G1 X56.594 Y105.791 F10800
G1 Z.2 F720
G1 E.8 F2100
M204 S800
;TYPE:Perimeter
G1 F1200
G1 X56.579 Y105.721 E.00222
G1 X56.579 Y49.279 E1.76973
G1 X56.631 Y49.041 E.00763
G1 X56.815 Y48.819 E.00905
G1 X57.073 Y48.717 E.00869
G1 X57.145 Y48.713 E.00224
G1 X106.588 Y48.713 E1.55025
G1 X106.851 Y48.778 E.00852
G1 X107.058 Y48.965 E.00876
G1 X107.15 Y49.223 E.00859
G1 X107.153 Y49.279 E.00173
G1 X107.153 Y105.721 E1.76973
G1 X107.085 Y105.991 E.00872
G1 X106.888 Y106.201 E.00901
G1 X106.657 Y106.283 E.00768
G1 X106.478 Y106.287 E.00564
G1 X57.145 Y106.287 E1.5468
G1 X56.91 Y106.236 E.00753
G1 X56.707 Y106.08 E.00803
G1 X56.629 Y105.953 E.00467
G1 X56.606 Y105.849 E.00333
M204 S1000
G1 X56.956 Y105.721 F10800
M204 S800
;TYPE:External perimeter
G1 F1200
G1 X56.956 Y49.279 E1.76973
G1 X57.017 Y49.139 E.00477
G1 X57.145 Y49.09 E.00428
G1 X106.588 Y49.09 E1.55025
G1 X106.729 Y49.154 E.00488
G1 X106.776 Y49.279 E.00416
G1 X106.776 Y105.721 E1.76973
G1 X106.716 Y105.859 E.0047
G1 X106.588 Y105.91 E.00435
G1 X57.145 Y105.91 E1.55025
G1 X56.999 Y105.841 E.00506
G1 X56.969 Y105.78 E.00213
M204 S1000
G1 X56.57 Y105.618 F10800
;WIPE_START
G1 F8640
G1 X56.968 Y102.489 E-.76
;WIPE_END
G1 E-.04 F2100
G1 Z.6 F720
G1 X141.579 Y179.713 F10800
G1 Z.2 F720
G1 E.8 F2100
M204 S800
;TYPE:Perimeter
G1 F1200
G1 X46.653 Y179.713 E2.97633
